svg/u1f9db_1f3fc_200d_2640.svg

<svg viewBox="0 0 128 128" xmlns="http://www.w3.org/2000/svg" xmlns:xlink="http://www.w3.org/1999/xlink">
  <g id="cape">
    <g>
      <linearGradient id="SVGID_1_" gradientTransform="matrix(1 0 0 -1 0 130)" gradientUnits="userSpaceOnUse" x1="64" x2="64" y1="64.6514" y2="-96.9722">
        <stop offset="3.200000e-03" stop-color="#3A3233"/>
        <stop offset="0.3326" stop-color="#2D2728"/>
        <stop offset="0.9409" stop-color="#0B0909"/>
        <stop offset="1" stop-color="#070606"/>
      </linearGradient>
      <path d="M4,74.82c0,0,23.95-9.01,60-8.84c17.58,0.08,37.33,3.02,60,8.84c0,0-23.39,45.35-60,45.35 S7.91,83.79,4,74.82z" fill="url(#SVGID_1_)"/>
    </g>
    <linearGradient id="SVGID_2_" gradientTransform="matrix(1 0 0 -1 0 130)" gradientUnits="userSpaceOnUse" x1="64" x2="64" y1="64.0209" y2="18.5652">
      <stop offset="3.200000e-03" stop-color="#F70000"/>
      <stop offset="0.2347" stop-color="#F30000"/>
      <stop offset="0.4427" stop-color="#E90000"/>
      <stop offset="0.6417" stop-color="#D60000"/>
      <stop offset="0.834" stop-color="#BD0000"/>
      <stop offset="1" stop-color="#A00000"/>
    </linearGradient>
    <path d="M4,74.82c0,0,52.66-19.89,120,0c0,0-23.56,37.01-60.17,37.01S7.91,82.63,4,74.82z" fill="url(#SVGID_2_)"/>
  </g>
  <g id="hair">
    <path id="hair_2_" d="M64.57,4.12c-41.01,0-40.68,37.92-40.68,38.52c0,24.56,1.88,59.25,11.71,72.9 c3.9,5.41,11.43,5.71,11.43,5.71L64,121.23l16.97,0.03c0,0,7.54-0.3,11.43-5.71c9.83-13.65,11.71-48.34,11.71-72.9 C104.1,42.04,105.58,4.12,64.57,4.12z" fill="#AB872F"/>
  </g>
  <g id="chest">
    <linearGradient id="chest_2_" gradientTransform="matrix(1 0 0 -1 0 130)" gradientUnits="userSpaceOnUse" x1="64" x2="64" y1="9.3547" y2="38.5385">
      <stop offset="0.3609" stop-color="#E0BB95"/>
      <stop offset="0.8228" stop-color="#CCA47A"/>
    </linearGradient>
    <path id="chest_1_" d="M91.47,99.29c-5.64-1.64-11.91-2.7-18.39-3.22v-5.99H64h-9.08v5.97 c-6.44,0.48-12.7,1.46-18.34,3.01c-0.16,0.76-0.24,1.54-0.24,2.32c0,9.79,12.39,17.74,27.67,17.74s27.67-7.94,27.67-17.74 C91.67,100.67,91.6,99.97,91.47,99.29z" fill="url(#chest_2_)"/>
  </g>
  <g id="face">
    <path id="head" d="M64,16.04L64,16.04L64,16.04c-17.2,0-33.13,12.79-33.13,39.91 c0,21.78,13.49,34.67,25.23,38.83c2.8,0.99,5.5,1.49,7.9,1.49c2.38,0,5.07-0.49,7.85-1.47c11.76-4.14,25.28-17.03,25.28-38.84 C97.13,28.83,81.2,16.04,64,16.04z" fill="#E0BB95"/>
    <g id="eyes">
      <ellipse cx="47.75" cy="58.87" fill="#5D4037" rx="4.87" ry="5.04"/>
      <ellipse cx="80.25" cy="58.87" fill="#5D4037" rx="4.87" ry="5.04"/>
    </g>
    <g id="eyebrows">
      <path d="M54.99,49.82c-0.93-1.23-3.07-3.01-7.23-3.01s-6.31,1.79-7.23,3.01c-0.41,0.54-0.31,1.17-0.02,1.55 c0.26,0.35,1.04,0.68,1.9,0.39s2.54-1.16,5.35-1.18c2.81,0.02,4.49,0.89,5.35,1.18c0.86,0.29,1.64-0.03,1.9-0.39 C55.29,50.99,55.39,50.36,54.99,49.82z" fill="#AB872F"/>
      <path d="M87.48,49.82c-0.93-1.23-3.07-3.01-7.23-3.01s-6.31,1.79-7.23,3.01c-0.41,0.54-0.31,1.17-0.02,1.55 c0.26,0.35,1.04,0.68,1.9,0.39s2.54-1.16,5.35-1.18c2.81,0.02,4.49,0.89,5.35,1.18c0.86,0.29,1.64-0.03,1.9-0.39 C87.79,50.99,87.89,50.36,87.48,49.82z" fill="#AB872F"/>
    </g>
    <path id="mouth" d="M72.32,76.14c-3.15,1.87-13.47,1.87-16.61,0c-1.81-1.07-3.65,0.57-2.9,2.21 c0.74,1.61,6.37,5.36,11.23,5.36s10.42-3.75,11.16-5.36C75.95,76.71,74.12,75.06,72.32,76.14z" fill="#6D4C41"/>
    <path id="nose" d="M67.81,68.06c-0.11-0.04-0.21-0.07-0.32-0.08H60.5c-0.11,0.01-0.21,0.04-0.32,0.08 c-0.63,0.26-0.98,0.91-0.68,1.61c0.3,0.7,1.69,2.66,4.49,2.66c2.8,0,4.2-1.96,4.49-2.66C68.79,68.97,68.45,68.31,67.81,68.06z" fill="#C48E6A"/>
  </g>
  <g id="hairGroup">
    <path id="hair_1_" d="M64.08,7.07c-0.03,0-0.05,0-0.08,0s-0.05,0-0.08,0c-38.83,0-37.81,35.57-37.81,35.57 s0.09,45.38,3.05,51.39c2.96,6.02,7.65,3.64,7.65,3.64s-3.08-23.18-3.05-37.06C33.83,35.83,51,22.17,64,36l0,0l0,0 c13-13.83,30.17-0.17,30.24,24.62c0.04,13.88-3.05,37.06-3.05,37.06s4.68,2.37,7.65-3.64c2.96-6.02,3.05-51.39,3.05-51.39 S102.91,7.07,64.08,7.07z" fill="#AB872F"/>
    <radialGradient id="hairHighlights_1_" cx="64.1669" cy="63.7555" gradientTransform="matrix(1.030000e-13 1 0.7824 -8.000000e-14 14.2822 -0.2006)" gradientUnits="userSpaceOnUse" r="59.8581">
      <stop offset="0.8436" stop-color="#BFA055" stop-opacity="0"/>
      <stop offset="1" stop-color="#BFA055"/>
    </radialGradient>
    <path id="hairHighlights" d="M104.1,42.65c0,18.35-1.04,42.35-5.67,59 C88.85,97.86,76.46,96,64.14,96H64c-12.34,0.02-24.85,1.66-34.51,5.37c-4.56-16.64-5.6-40.48-5.6-58.72 c0-0.61-0.33-38.53,40.68-38.53S104.1,42.04,104.1,42.65z" fill="url(#hairHighlights_1_)"/>
  </g>
  <g id="teeth">
    <g>
      <defs>
        <path id="SVGID_3_" d="M72.42,76.14c-3.18,1.89-13.63,1.89-16.81,0c-1.83-1.09-3.7,0.58-2.94,2.24 c0.75,1.63,6.44,5.42,11.37,5.42s10.55-3.79,11.3-5.42C76.09,76.72,74.25,75.05,72.42,76.14z"/>
      </defs>
      <clipPath id="SVGID_4_">
        <use overflow="visible" xlink:href="#SVGID_3_"/>
      </clipPath>
      <g clip-path="url(#SVGID_4_)">
        <polygon fill="#FFFFFF" points="55.33,75.66 56.33,80.65 58.67,76.71 "/>
        <polygon fill="#FFFFFF" points="72.68,75.66 71.67,80.65 69.32,76.71 "/>
      </g>
    </g>
  </g>
  <linearGradient id="collar_1_" gradientTransform="matrix(1 0 0 -1 0 130)" gradientUnits="userSpaceOnUse" x1="63.8329" x2="63.8329" y1="34.7557" y2="23.226">
    <stop offset="3.200000e-03" stop-color="#3A3233"/>
    <stop offset="0.3326" stop-color="#2D2728"/>
    <stop offset="0.9409" stop-color="#0B0909"/>
    <stop offset="1" stop-color="#070606"/>
  </linearGradient>
  <path id="collar" d="M76.7,95.1c-1.15-0.38-2.36,0.08-3.38,0.74c-1.45,0.93-2.82,1.55-4.11,1.99 c-1.3,0.44-2.54,0.69-3.74,0.82c-0.55,0.06-1.09,0.08-1.63,0.09c-0.54,0-1.09-0.03-1.63-0.09c-1.21-0.13-2.44-0.38-3.74-0.82 c-1.3-0.44-2.67-1.06-4.12-1.99c-1.02-0.66-2.23-1.11-3.38-0.74c-2.7,0.89-0.12,11.3,12.87,11.39C76.82,106.4,79.4,96,76.7,95.1z" fill="url(#collar_1_)"/>
  <linearGradient id="skunk_x5F_stripe_1_" gradientTransform="matrix(1 0 0 -1 0 130)" gradientUnits="userSpaceOnUse" x1="28.6862" x2="52.3857" y1="80.9678" y2="108.358">
    <stop offset="0" stop-color="#E0E0E0" stop-opacity="0"/>
    <stop offset="0.7447" stop-color="#E0E0E0"/>
  </linearGradient>
  <path id="skunk_x5F_stripe" d="M64,25.12c0,0-11.63-16.85-26.75-3.88 C24,32.62,28.53,67.38,28.53,67.38S28.97,31.66,44,23.48C54.8,17.6,64,25.12,64,25.12z" fill="url(#skunk_x5F_stripe_1_)"/>
  <radialGradient id="SVGID_5_" cx="64.6081" cy="6.7827" gradientTransform="matrix(1 0 0 -0.5476 0 127.761)" gradientUnits="userSpaceOnUse" r="64.5245">
    <stop offset="0.6009" stop-color="#212121"/>
    <stop offset="1" stop-color="#616161"/>
  </radialGradient>
  <path d="M116,120.83V124H12v-3.17c0-10.94,9.91-17.92,24.55-21.64c-0.14,0.72-0.22,1.45-0.22,2.19 c0,9.79,12.39,17.73,27.67,17.73s27.67-7.94,27.67-17.73c0-0.67-0.06-1.33-0.18-1.98c3.31,0.9,6.28,1.94,8.7,3 C107.4,105.54,116,111.29,116,120.83z" fill="url(#SVGID_5_)"/>
</svg>

<svg viewBox="0 0 128 128" xmlns="http://www.w3.org/2000/svg">
  <defs>
    <linearGradient id="collar_1_" gradientTransform="matrix(1 0 0 -1 0 0)" gradientUnits="userSpaceOnUse" x1="63.8329" x2="63.8329" y1="-95.2443" y2="-106.774">
      <stop offset="3.200000e-03" stop-color="#3A3233"/>
      <stop offset="0.3326" stop-color="#2D2728"/>
      <stop offset="0.9409" stop-color="#0B0909"/>
      <stop offset="1" stop-color="#070606"/>
    </linearGradient>
    <linearGradient id="skunk_x5F_stripe_1_" gradientTransform="matrix(1 0 0 -1 0 0)" gradientUnits="userSpaceOnUse" x1="28.6862" x2="52.3857" y1="-49.0322" y2="-21.642">
      <stop offset="0" stop-color="#E0E0E0" stop-opacity="0"/>
      <stop offset="0.7447" stop-color="#E0E0E0"/>
    </linearGradient>
    <linearGradient id="SVGID_2_" gradientTransform="matrix(1 0 0 -1 0 0)" gradientUnits="userSpaceOnUse" x1="64" x2="64" y1="-65.9791" y2="-111.4348">
      <stop offset="3.200000e-03" stop-color="#F70000"/>
      <stop offset="0.2347" stop-color="#F30000"/>
      <stop offset="0.4427" stop-color="#E90000"/>
      <stop offset="0.6417" stop-color="#D60000"/>
      <stop offset="0.834" stop-color="#BD0000"/>
      <stop offset="1" stop-color="#A00000"/>
    </linearGradient>
    <radialGradient id="SVGID_5_" cx="64.6081" cy="-226.528111" gradientTransform="matrix(1 0 0 -0.5476 0 0)" gradientUnits="userSpaceOnUse" r="64.5245">
      <stop offset="0.6009" stop-color="#212121"/>
      <stop offset="1" stop-color="#616161"/>
    </radialGradient>
    <linearGradient id="chest_2_" gradientTransform="matrix(1 0 0 -1 0 0)" gradientUnits="userSpaceOnUse" x1="64" x2="64" y1="-120.6453" y2="-91.4615">
      <stop offset="0.3609" stop-color="#E0BB95"/>
      <stop offset="0.8228" stop-color="#CCA47A"/>
    </linearGradient>
    <radialGradient id="hairHighlights_1_" cx="63.9663" cy="82.009846" gradientTransform="matrix(0 1 0.7824 0 0 0)" gradientUnits="userSpaceOnUse" r="59.8581">
      <stop offset="0.8436" stop-color="#BFA055" stop-opacity="0"/>
      <stop offset="1" stop-color="#BFA055"/>
    </radialGradient>
    <linearGradient id="SVGID_1_" gradientTransform="matrix(1 0 0 -1 0 0)" gradientUnits="userSpaceOnUse" x1="64" x2="64" y1="-65.3486" y2="-226.9722">
      <stop offset="3.200000e-03" stop-color="#3A3233"/>
      <stop offset="0.3326" stop-color="#2D2728"/>
      <stop offset="0.9409" stop-color="#0B0909"/>
      <stop offset="1" stop-color="#070606"/>
    </linearGradient>
  </defs>
  <path d="M4,74.82 C4,74.82 27.95,65.81 64,65.98 C81.58,66.06 101.33,69 124,74.82 C124,74.82 100.61,120.17 64,120.17 C27.39,120.17 7.91,83.79 4,74.82 Z" fill="url(#SVGID_1_)"/>
  <path d="M4,74.82 C4,74.82 56.66,54.93 124,74.82 C124,74.82 100.44,111.83 63.83,111.83 C27.22,111.83 7.91,82.63 4,74.82 Z" fill="url(#SVGID_2_)"/>
  <path id="hair_2_" d="M64.57,4.12 C23.56,4.12 23.89,42.04 23.89,42.64 C23.89,67.2 25.77,101.89 35.6,115.54 C39.5,120.95 47.03,121.25 47.03,121.25 L64,121.23 L80.97,121.26 C80.97,121.26 88.51,120.96 92.4,115.55 C102.23,101.9 104.11,67.21 104.11,42.65 C104.1,42.04 105.58,4.12 64.57,4.12 Z" fill="#AB872F"/>
  <path id="chest_1_" d="M91.47,99.29 C85.83,97.65 79.56,96.59 73.08,96.07 L73.08,90.08 L64,90.08 L54.92,90.08 L54.92,96.05 C48.48,96.53 42.22,97.51 36.58,99.06 C36.42,99.82 36.34,100.6 36.34,101.38 C36.34,111.17 48.73,119.12 64.01,119.12 C79.29,119.12 91.68,111.18 91.68,101.38 C91.67,100.67 91.6,99.97 91.47,99.29 Z" fill="url(#chest_2_)"/>
  <path id="head" d="M64,16.04 L64,16.04 L64,16.04 C46.8,16.04 30.87,28.83 30.87,55.95 C30.87,77.73 44.36,90.62 56.1,94.78 C58.9,95.77 61.6,96.27 64,96.27 C66.38,96.27 69.07,95.78 71.85,94.8 C83.61,90.66 97.13,77.77 97.13,55.96 C97.13,28.83 81.2,16.04 64,16.04 Z" fill="#E0BB95"/>
  <path d="M52.62,58.87 A4.87 5.04 0 1 1 42.88,58.87 A4.87 5.04 0 1 1 52.62,58.87 Z" fill="#5D4037"/>
  <path d="M85.12,58.87 A4.87 5.04 0 1 1 75.38,58.87 A4.87 5.04 0 1 1 85.12,58.87 Z" fill="#5D4037"/>
  <path d="M54.99,49.82 C54.06,48.59 51.92,46.81 47.76,46.81 C43.6,46.81 41.45,48.6 40.53,49.82 C40.12,50.36 40.22,50.99 40.51,51.37 C40.77,51.72 41.55,52.05 42.41,51.76 C43.27,51.47 44.95,50.6 47.76,50.58 C50.57,50.6 52.25,51.47 53.11,51.76 C53.97,52.05 54.75,51.73 55.01,51.37 C55.29,50.99 55.39,50.36 54.99,49.82 Z" fill="#AB872F"/>
  <path d="M87.48,49.82 C86.55,48.59 84.41,46.81 80.25,46.81 C76.09,46.81 73.94,48.6 73.02,49.82 C72.61,50.36 72.71,50.99 73,51.37 C73.26,51.72 74.04,52.05 74.9,51.76 C75.76,51.47 77.44,50.6 80.25,50.58 C83.06,50.6 84.74,51.47 85.6,51.76 C86.46,52.05 87.24,51.73 87.5,51.37 C87.79,50.99 87.89,50.36 87.48,49.82 Z" fill="#AB872F"/>
  <path id="mouth" d="M72.32,76.14 C69.17,78.01 58.85,78.01 55.71,76.14 C53.9,75.07 52.06,76.71 52.81,78.35 C53.55,79.96 59.18,83.71 64.04,83.71 C68.9,83.71 74.46,79.96 75.2,78.35 C75.95,76.71 74.12,75.06 72.32,76.14 Z" fill="#6D4C41"/>
  <path id="nose" d="M67.81,68.06 C67.7,68.02 67.6,67.99 67.49,67.98 L60.5,67.98 C60.39,67.99 60.29,68.02 60.18,68.06 C59.55,68.32 59.2,68.97 59.5,69.67 C59.8,70.37 61.19,72.33 63.99,72.33 C66.79,72.33 68.19,70.37 68.48,69.67 C68.79,68.97 68.45,68.31 67.81,68.06 Z" fill="#C48E6A"/>
  <path id="hair_1_" d="M64.08,7.07 C64.05,7.07 64.03,7.07 64,7.07 C63.97,7.07 63.95,7.07 63.92,7.07 C25.09,7.07 26.11,42.64 26.11,42.64 C26.11,42.64 26.2,88.02 29.16,94.03 C32.12,100.05 36.81,97.67 36.81,97.67 C36.81,97.67 33.73,74.49 33.76,60.61 C33.83,35.83 51,22.17 64,36 L64,36 L64,36 C77,22.17 94.17,35.83 94.24,60.62 C94.28,74.5 91.19,97.68 91.19,97.68 C91.19,97.68 95.87,100.05 98.84,94.04 C101.8,88.02 101.89,42.65 101.89,42.65 C101.89,42.65 102.91,7.07 64.08,7.07 Z" fill="#AB872F"/>
  <path id="hairHighlights" d="M104.1,42.65 C104.1,61 103.06,85 98.43,101.65 C88.85,97.86 76.46,96 64.14,96 L64,96 C51.66,96.02 39.15,97.66 29.49,101.37 C24.93,84.73 23.89,60.89 23.89,42.65 C23.89,42.04 23.56,4.12 64.57,4.12 C105.58,4.12 104.1,42.04 104.1,42.65 Z" fill="url(#hairHighlights_1_)"/>
  <path d="M55.404,76.029 C55.473,76.062 55.541,76.099 55.61,76.14 C56.279,76.538 57.271,76.852 58.449,77.082 L56.33,80.65 Z" fill="#FFFFFF"/>
  <path d="M72.42,76.14 C72.481,76.104 72.542,76.07 72.603,76.04 L71.67,80.65 L69.546,77.089 C70.739,76.858 71.744,76.542 72.42,76.14 Z" fill="#FFFFFF"/>
  <path id="collar" d="M76.7,95.1 C75.55,94.72 74.34,95.18 73.32,95.84 C71.87,96.77 70.5,97.39 69.21,97.83 C67.91,98.27 66.67,98.52 65.47,98.65 C64.92,98.71 64.38,98.73 63.84,98.74 C63.3,98.74 62.75,98.71 62.21,98.65 C61,98.52 59.77,98.27 58.47,97.83 C57.17,97.39 55.8,96.77 54.35,95.84 C53.33,95.18 52.12,94.73 50.97,95.1 C48.27,95.99 50.85,106.4 63.84,106.49 C76.82,106.4 79.4,96 76.7,95.1 Z" fill="url(#collar_1_)"/>
  <path id="skunk_x5F_stripe" d="M64,25.12 C64,25.12 52.37,8.27 37.25,21.24 C24,32.62 28.53,67.38 28.53,67.38 C28.53,67.38 28.97,31.66 44,23.48 C54.8,17.6 64,25.12 64,25.12 Z" fill="url(#skunk_x5F_stripe_1_)"/>
  <path d="M116,120.83 L116,124 L12,124 L12,120.83 C12,109.89 21.91,102.91 36.55,99.19 C36.41,99.91 36.33,100.64 36.33,101.38 C36.33,111.17 48.72,119.11 64,119.11 C79.28,119.11 91.67,111.17 91.67,101.38 C91.67,100.71 91.61,100.05 91.49,99.4 C94.8,100.3 97.77,101.34 100.19,102.4 C107.4,105.54 116,111.29 116,120.83 Z" fill="url(#SVGID_5_)"/>
</svg>
